packages/ffe-icons/icons/open/400/sm/graphic_eq.svg

<svg xmlns="http://www.w3.org/2000/svg" height="20" viewBox="0 -960 960 960" width="20"><path d="M294-276v-408q0-15.3 10.29-25.65Q314.58-720 329.79-720t25.71 10.35Q366-699.3 366-684v408q0 15.3-10.29 25.65Q345.42-240 330.21-240t-25.71-10.35Q294-260.7 294-276Zm150 144v-696q0-15.3 10.29-25.65Q464.58-864 479.79-864t25.71 10.35Q516-843.3 516-828v696q0 15.3-10.29 25.65Q495.42-96 480.21-96t-25.71-10.35Q444-116.7 444-132ZM144-420v-120q0-15.3 10.29-25.65Q164.58-576 179.79-576t25.71 10.35Q216-555.3 216-540v120q0 15.3-10.29 25.65Q195.42-384 180.21-384t-25.71-10.35Q144-404.7 144-420Zm450 144v-408q0-15.3 10.29-25.65Q614.58-720 629.79-720t25.71 10.35Q666-699.3 666-684v408q0 15.3-10.29 25.65Q645.42-240 630.21-240t-25.71-10.35Q594-260.7 594-276Zm150-144v-120q0-15.3 10.29-25.65Q764.58-576 779.79-576t25.71 10.35Q816-555.3 816-540v120q0 15.3-10.29 25.65Q795.42-384 780.21-384t-25.71-10.35Q744-404.7 744-420Z"/></svg>

<svg xmlns="http://www.w3.org/2000/svg" height="20" viewBox="0 -960 960 960" width="20"><path d="M294-276v-408q0-15.3 10.289-25.65 10.29-10.35 25.5-10.35Q345-720 355.5-709.65 366-699.3 366-684v408q0 15.3-10.289 25.65-10.29 10.35-25.5 10.35Q315-240 304.5-250.35 294-260.7 294-276Zm150 144v-696q0-15.3 10.289-25.65 10.29-10.35 25.5-10.35Q495-864 505.5-853.65 516-843.3 516-828v696q0 15.3-10.289 25.65Q495.421-96 480.211-96 465-96 454.5-106.35 444-116.7 444-132ZM144-420v-120q0-15.3 10.289-25.65 10.29-10.35 25.5-10.35Q195-576 205.5-565.65 216-555.3 216-540v120q0 15.3-10.289 25.65-10.29 10.35-25.5 10.35Q165-384 154.5-394.35 144-404.7 144-420Zm450 144v-408q0-15.3 10.289-25.65 10.29-10.35 25.5-10.35Q645-720 655.5-709.65 666-699.3 666-684v408q0 15.3-10.289 25.65-10.29 10.35-25.5 10.35Q615-240 604.5-250.35 594-260.7 594-276Zm150-144v-120q0-15.3 10.289-25.65 10.29-10.35 25.5-10.35Q795-576 805.5-565.65 816-555.3 816-540v120q0 15.3-10.289 25.65-10.29 10.35-25.5 10.35Q765-384 754.5-394.35 744-404.7 744-420Z"/></svg>
